X:22
T:Barriera della Nobilta di Dame
M:4/4
L:1/4
Q:256
K:F
A2 A A | A2 c B | A3 G | F2 C2 |
A2 A A | A2 c B | A3 G | F2 c B |
A F G A | B A G F | E G A B | c A =B c |
=B2 c2 | c2 =B2 | c B/A/ G/F/E/D/ | E G A B :|
|: c2 c c | c B A G | A F G A | B A G F |
E2 F2 | F2 E2 | F4- | F4 :|
M:6/4
L:1/4
|: A2 A A A A | c2 c c c c | A2 A A A A | F4 F2 |
A2 A A A A | c2 c c c c | A2 A A A A | F4 F2 |
A2 G F E D | E3 D C2 | E2 D2 D2 | E F E D C2 |
A2 G F E D | E2 F E D C | =B, A, B, C D B, | C4 :|
M:4/4
L:1/4
|: c2 c c | c B A G | A F G A | B A G F |
E2 F2 | F2 E2 | F4- | F4 :|
M:6/4
L:1/4
|: c2 B A G2 | A2 G2 F2 | E D C B, A, B, | C A, =B, C D =B, |
C G A B c2 | B3 A G2 | A3 G F2 | G3 F E2 | F E F G A B |
c A B A G B | A F G A B A | G F E F G E | F4 F2 :|
